frontend/public/svg/interface/flag-2.svg

<svg width="159" height="155" viewBox="0 0 159 155" fill="none" xmlns="http://www.w3.org/2000/svg">
<g clip-path="url(#clip0)">
<path d="M59.8712 94.7658L11.886 96.4275C11.886 97.2523 11.8964 98.4251 11.886 99.5973C11.7228 115.173 11.5758 130.75 11.3619 146.327C11.3155 148.083 11.082 149.831 10.6655 151.54C10.4568 152.408 9.9689 153.187 9.27558 153.756C8.58227 154.325 7.7212 154.654 6.82271 154.694C5.92419 154.733 5.03707 154.481 4.29546 153.976C3.55385 153.471 2.99809 152.739 2.71225 151.892C2.16687 150.337 1.85184 148.712 1.77718 147.067C1.56846 138.564 1.33249 130.057 1.39231 121.553C1.56006 97.911 1.81577 74.2696 2.15951 50.6293C2.36757 37.8199 2.92941 25.0148 3.40341 12.2098C3.49243 10.0028 3.77108 7.80762 4.23633 5.64776C4.88654 2.60459 6.20708 1.56735 9.31375 1.42462C12.4204 1.28189 15.5395 1.21529 18.654 1.17202C38.6738 0.896467 58.6943 0.629284 78.7154 0.370089C79.4956 0.358895 80.2739 0.341622 81.0509 0.318372C86.3559 0.158205 88.2428 1.33209 88.999 7.67484C89.3501 10.6192 89.5192 13.5843 89.7923 16.7644C90.5329 16.8771 91.2806 16.9417 92.0296 16.958C107.032 16.3389 122.033 15.706 137.034 15.0594C141.479 14.8656 145.92 14.5725 150.363 14.4239C154.576 14.2831 156.169 15.8907 156.345 20.0428C156.881 32.3976 157.711 44.7451 157.952 57.1044C158.198 69.7985 157.875 82.5027 157.829 95.2024C157.833 96.0652 157.953 96.9242 158.183 97.7566C159.135 101.28 157.802 103.591 154.132 104.272C151.938 104.634 149.723 104.86 147.5 104.947C132.848 105.807 118.199 106.772 103.536 107.424C91.4301 107.963 79.3077 108.577 67.1898 107.52C67.0786 107.51 66.9687 107.493 66.8576 107.487C61.2359 107.192 59.9779 105.892 59.8764 100.225C59.8446 98.4813 59.8712 96.7369 59.8712 94.7658ZM149.439 23.4249L65.9213 26.4526C66.0949 29.9356 66.2113 33.3436 66.4447 36.7439C67.1469 46.9868 68.0702 57.217 68.5734 67.4709C69.0474 77.1739 69.0936 86.8969 69.3303 96.6109C69.3589 97.7831 69.4265 98.9547 69.4909 100.486C96.1454 99.8717 122.34 97.508 148.812 95.6293C149.023 71.4738 149.229 47.6624 149.439 23.4249ZM12.0141 8.27365C12.0141 9.63701 12.0023 10.9462 12.0141 12.2553C12.1272 23.0769 12.3561 33.8991 12.332 44.7207C12.3021 58.4123 12.0615 72.1087 11.9341 85.8029C11.9663 86.5476 12.0497 87.2896 12.1838 88.0239L59.8563 85.3922C59.643 78.837 59.5435 72.6621 59.2197 66.4996C58.5187 53.1551 57.9843 39.8175 58.639 26.4481C58.68 24.6284 59.1438 22.8424 59.9942 21.23C60.8446 19.6177 62.0586 18.2226 63.5416 17.1532C65.9161 15.33 68.3244 13.5508 70.6905 11.7172C71.6125 11.0029 72.4604 10.1937 73.6489 9.16103L12.0141 8.27365ZM82.6263 10.9481L75.7342 17.3456H82.3123C82.4501 16.7414 82.5503 16.1293 82.612 15.5128C82.6504 14.2082 82.625 12.9056 82.625 10.9481H82.6263Z" fill="black"/>
</g>
<defs>
<clipPath id="clip0">
<rect width="158" height="155" fill="white" transform="translate(0.777344)"/>
</clipPath>
</defs>
</svg>

<svg xmlns="http://www.w3.org/2000/svg" width="159" height="155" fill="none" viewBox="0 0 159 155"><g clip-path="url(#a)"><path fill="#000" d="m59.871 94.766-47.985 1.661c0 .825.01 1.998 0 3.17-.163 15.576-.31 31.153-.524 46.73a24.8 24.8 0 0 1-.697 5.213 4.1 4.1 0 0 1-1.39 2.216 4.16 4.16 0 0 1-4.98.22 4.1 4.1 0 0 1-1.583-2.084 16.9 16.9 0 0 1-.935-4.825c-.209-8.503-.445-17.01-.385-25.514q.252-35.463.768-70.924c.208-12.81.77-25.614 1.243-38.42.09-2.206.368-4.401.833-6.561.65-3.043 1.971-4.08 5.078-4.223 3.106-.143 6.226-.21 9.34-.253Q48.684.758 78.715.37q1.17-.016 2.336-.052c5.305-.16 7.192 1.014 7.948 7.357.351 2.944.52 5.91.793 9.09.74.112 1.489.177 2.238.193q22.503-.93 45.004-1.899c4.445-.193 8.886-.486 13.329-.635 4.213-.14 5.806 1.467 5.982 5.619.536 12.355 1.366 24.702 1.607 37.061.246 12.695-.077 25.399-.123 38.098a9.8 9.8 0 0 0 .354 2.555c.952 3.523-.381 5.834-4.051 6.515a54 54 0 0 1-6.632.675c-14.652.86-29.301 1.825-43.964 2.477-12.106.539-24.228 1.153-36.346.096-.111-.01-.221-.027-.332-.033-5.622-.295-6.88-1.595-6.982-7.262-.031-1.744-.005-3.488-.005-5.46m89.568-71.341-83.518 3.028c.174 3.483.29 6.89.524 10.29.702 10.244 1.625 20.474 2.128 30.728.474 9.703.52 19.426.757 29.14.029 1.172.097 2.344.16 3.875 26.655-.614 52.85-2.978 79.322-4.857.211-24.155.417-47.967.627-72.204M12.014 8.274c0 1.363-.012 2.672 0 3.981.113 10.822.342 21.644.318 32.466-.03 13.691-.27 27.388-.398 41.082q.049 1.119.25 2.22l47.672-2.63c-.213-6.556-.312-12.73-.636-18.893-.701-13.345-1.236-26.682-.581-40.052.041-1.82.505-3.606 1.355-5.218a11.8 11.8 0 0 1 3.548-4.077c2.374-1.823 4.782-3.602 7.148-5.436.922-.714 1.77-1.523 2.959-2.556zm70.612 2.674-6.892 6.398h6.578q.207-.908.3-1.833c.038-1.305.013-2.607.013-4.565z"/></g><defs><clipPath id="a"><path fill="#fff" d="M.777 0h158v155h-158z"/></clipPath></defs></svg>
